public/ecosystem/qwik-taiwan.svg

<svg fill="none" height="180" viewBox="0 0 180 180" width="180" xmlns="http://www.w3.org/2000/svg" xmlns:xlink="http://www.w3.org/1999/xlink"><linearGradient id="a" gradientUnits="userSpaceOnUse" x1="44.5" x2="150.5" y1="30.3047" y2="149.805"><stop offset="0" stop-color="#ac7ff4"/><stop offset="1" stop-color="#18b6f6"/></linearGradient><clipPath id="b"><path d="m0 0h180v180h-180z"/></clipPath><mask id="c" height="154" maskUnits="userSpaceOnUse" width="154" x="13" y="17"><path d="m144.228 148.041c29.866-29.831 29.866-78.1966 0-108.0275-29.865-29.8309-78.2865-29.8309-108.1519 0-29.8654 29.8309-29.8654 78.1965 0 108.0275s78.2869 29.831 108.1519 0z" fill="#fff"/></mask><mask id="d" height="154" maskUnits="userSpaceOnUse" width="154" x="13" y="17"><path d="m144.228 148.041c29.866-29.831 29.866-78.1966 0-108.0275-29.865-29.8309-78.2865-29.8309-108.1519 0-29.8654 29.8309-29.8654 78.1965 0 108.0275s78.2869 29.831 108.1519 0z" fill="#fff"/></mask><mask id="e" height="154" maskUnits="userSpaceOnUse" width="154" x="13" y="17"><path d="m144.228 148.041c29.866-29.831 29.866-78.1966 0-108.0275-29.865-29.8309-78.2865-29.8309-108.1519 0-29.8654 29.8309-29.8654 78.1965 0 108.0275s78.2869 29.831 108.1519 0z" fill="#fff"/></mask><mask id="f" height="154" maskUnits="userSpaceOnUse" width="154" x="13" y="17"><path d="m144.228 148.041c29.866-29.831 29.866-78.1966 0-108.0275-29.865-29.8309-78.2865-29.8309-108.1519 0-29.8654 29.8309-29.8654 78.1965 0 108.0275s78.2869 29.831 108.1519 0z" fill="#fff"/></mask><mask id="g" height="154" maskUnits="userSpaceOnUse" width="154" x="13" y="17"><path d="m144.228 148.041c29.866-29.831 29.866-78.1966 0-108.0275-29.865-29.8309-78.2865-29.8309-108.1519 0-29.8654 29.8309-29.8654 78.1965 0 108.0275s78.2869 29.831 108.1519 0z" fill="#fff"/></mask><mask id="h" height="154" maskUnits="userSpaceOnUse" width="154" x="13" y="17"><path d="m144.228 148.041c29.866-29.831 29.866-78.1966 0-108.0275-29.865-29.8309-78.2865-29.8309-108.1519 0-29.8654 29.8309-29.8654 78.1965 0 108.0275s78.2869 29.831 108.1519 0z" fill="#fff"/></mask><mask id="i" height="154" maskUnits="userSpaceOnUse" width="154" x="13" y="17"><path d="m144.228 148.041c29.866-29.831 29.866-78.1966 0-108.0275-29.865-29.8309-78.2865-29.8309-108.1519 0-29.8654 29.8309-29.8654 78.1965 0 108.0275s78.2869 29.831 108.1519 0z" fill="#fff"/></mask><mask id="j" height="154" maskUnits="userSpaceOnUse" width="154" x="13" y="17"><path d="m144.228 148.041c29.866-29.831 29.866-78.1966 0-108.0275-29.865-29.8309-78.2865-29.8309-108.1519 0-29.8654 29.8309-29.8654 78.1965 0 108.0275s78.2869 29.831 108.1519 0z" fill="#fff"/></mask><mask id="k" height="154" maskUnits="userSpaceOnUse" width="154" x="13" y="17"><path d="m144.228 148.041c29.866-29.831 29.866-78.1966 0-108.0275-29.865-29.8309-78.2865-29.8309-108.1519 0-29.8654 29.8309-29.8654 78.1965 0 108.0275s78.2869 29.831 108.1519 0z" fill="#fff"/></mask><mask id="l" height="154" maskUnits="userSpaceOnUse" width="154" x="13" y="17"><path d="m144.228 148.041c29.866-29.831 29.866-78.1966 0-108.0275-29.865-29.8309-78.2865-29.8309-108.1519 0-29.8654 29.8309-29.8654 78.1965 0 108.0275s78.2869 29.831 108.1519 0z" fill="#fff"/></mask><mask id="m" height="154" maskUnits="userSpaceOnUse" width="154" x="13" y="17"><path d="m144.228 148.041c29.866-29.831 29.866-78.1966 0-108.0275-29.865-29.8309-78.2865-29.8309-108.1519 0-29.8654 29.8309-29.8654 78.1965 0 108.0275s78.2869 29.831 108.1519 0z" fill="#fff"/></mask><mask id="n" height="154" maskUnits="userSpaceOnUse" width="154" x="13" y="17"><path d="m144.228 148.041c29.866-29.831 29.866-78.1966 0-108.0275-29.865-29.8309-78.2865-29.8309-108.1519 0-29.8654 29.8309-29.8654 78.1965 0 108.0275s78.2869 29.831 108.1519 0z" fill="#fff"/></mask><mask id="o" height="154" maskUnits="userSpaceOnUse" width="154" x="13" y="17"><path d="m144.228 148.041c29.866-29.831 29.866-78.1966 0-108.0275-29.865-29.8309-78.2865-29.8309-108.1519 0-29.8654 29.8309-29.8654 78.1965 0 108.0275s78.2869 29.831 108.1519 0z" fill="#fff"/></mask><mask id="p" height="154" maskUnits="userSpaceOnUse" width="154" x="13" y="17"><path d="m144.228 148.041c29.866-29.831 29.866-78.1966 0-108.0275-29.865-29.8309-78.2865-29.8309-108.1519 0-29.8654 29.8309-29.8654 78.1965 0 108.0275s78.2869 29.831 108.1519 0z" fill="#fff"/></mask><mask id="q" height="154" maskUnits="userSpaceOnUse" width="154" x="13" y="17"><path d="m144.228 148.041c29.866-29.831 29.866-78.1966 0-108.0275-29.865-29.8309-78.2865-29.8309-108.1519 0-29.8654 29.8309-29.8654 78.1965 0 108.0275s78.2869 29.831 108.1519 0z" fill="#fff"/></mask><mask id="r" height="154" maskUnits="userSpaceOnUse" width="154" x="13" y="17"><path d="m144.228 148.041c29.866-29.831 29.866-78.1966 0-108.0275-29.865-29.8309-78.2865-29.8309-108.1519 0-29.8654 29.8309-29.8654 78.1965 0 108.0275s78.2869 29.831 108.1519 0z" fill="#fff"/></mask><mask id="s" height="154" maskUnits="userSpaceOnUse" width="154" x="13" y="17"><path d="m144.228 148.041c29.866-29.831 29.866-78.1966 0-108.0275-29.865-29.8309-78.2865-29.8309-108.1519 0-29.8654 29.8309-29.8654 78.1965 0 108.0275s78.2869 29.831 108.1519 0z" fill="#fff"/></mask><g clip-path="url(#b)"><circle cx="90" cy="94.3047" fill="url(#a)" r="81"/><g mask="url(#c)"><path d="m320.694 68.4368h-308.3864v50.9262h308.3864z" fill="#e41313"/></g><g mask="url(#d)"><path d="m320.694 119.359h-308.3864v50.927h308.3864z" fill="#e41313"/></g><g mask="url(#e)"><path d="m168.002 17.5105h-155.6944v76.517h155.6944z" fill="#2e2c84"/></g><g mask="url(#f)"><path d="m85.7812 40.3124 4.375-12.4582 4.375 12.4582z" fill="#fff"/></g><g mask="url(#g)"><path d="m94.5315 40.0723 10.3365-8.2293-2.929 12.8773z" fill="#fff"/></g><g mask="url(#h)"><path d="m101.55 44.4614 13.048-2.122-8.86 9.7989z" fill="#fff"/></g><g mask="url(#i)"><path d="m94.5214 71.2713-4.4436 12.4392-4.3063-12.4849z" fill="#fff"/></g><g mask="url(#j)"><path d="m85.7711 71.4657-10.3824 8.1721 2.9942-12.8583z" fill="#fff"/></g><g mask="url(#k)"><path d="m78.7719 67.0384-13.06 2.0574 8.9139-9.7533z" fill="#fff"/></g><g mask="url(#l)"><path d="m105.562 51.3992 12.473 4.3699-12.473 4.3699z" fill="#fff"/></g><g mask="url(#m)"><path d="m94.5315 71.7667 10.3365 8.2292-2.929-12.8772z" fill="#fff"/></g><g mask="url(#n)"><path d="m101.55 67.3776 13.048 2.1221-8.86-9.7951z" fill="#fff"/></g><g mask="url(#o)"><path d="m85.7819 39.7752-10.3405-8.2293 2.9294 12.8773z" fill="#fff"/></g><g mask="url(#p)"><path d="m78.7605 44.1643-13.0486-2.1221 8.8644 9.7951z" fill="#fff"/></g><g mask="url(#q)"><path d="m74.7509 51.1018-12.4765 4.3699 12.4765 4.3699z" fill="#fff"/></g><g mask="url(#r)"><path d="m94.5312 60.699-4.375 12.462-4.375-12.462z" fill="#fff"/></g><g mask="url(#s)"><path d="m106.425 55.7689h-.836c0 4.2594-1.728 8.1074-4.52 10.9-2.7954 2.7926-6.6478 4.5147-10.9121 4.5147-4.2644 0-8.1168-1.7259-10.9126-4.5147-2.7959-2.7926-4.5199-6.6406-4.5199-10.9s1.7278-8.1074 4.5199-10.9c2.7958-2.7926 6.6482-4.5146 10.9126-4.5146 4.2643 0 8.1167 1.7258 10.9121 4.5146 2.796 2.7926 4.52 6.6406 4.52 10.9h.836.835c0-4.7128-1.915-8.9912-5.008-12.081-3.0935-3.0898-7.3731-5.0024-12.0951-5.0024-4.7183 0-9.0017 1.9126-12.0951 5.0024-3.0933 3.0898-5.0081 7.3644-5.0081 12.081 0 4.7128 1.9148 8.9913 5.0081 12.081 3.0934 3.0898 7.373 5.0024 12.0951 5.0024 4.7182 0 9.0016-1.9126 12.0951-5.0024 3.093-3.0897 5.008-7.3644 5.008-12.081z" fill="#2c2e82"/></g><path d="m155.734 45.43-6.666-6.6284-.102.0145v-.0727l-14.176-13.9982 3.493-3.3724-2.052-11.77417-9.738 12.06497c-1.659 1.6716-1.964 4.3899-.771 6.3958l6.084 10.0881c.932 1.5553 2.62 2.4856 4.439 2.4711l3.013-.0291z" fill="#18b6f6"/><path d="m159.373 21.4309-1.339-2.4711-.698-1.2647-.277-.4942-.029.0291-3.668-6.3523c-.917-1.59894-2.634-2.58739-4.497-2.57285l-3.217.08721-9.592.02907c-1.819.01454-3.478.97392-4.395 2.52927l-5.837 11.5707 10.436-12.95162 13.682 15.03032-2.431 2.4566 1.456 11.7596.014-.029v.029h-.029l.029.0291 1.135 1.1048 5.517 5.3928c.233.2181.611-.0436.451-.3198l-3.406-6.7011 5.939-10.9747.189-.2181c.073-.0872.145-.1744.204-.2616 1.164-1.5844 1.324-3.7067.363-5.4365z" fill="#ac7ef4"/><path d="m149.984 24.5416-13.725-14.95762 1.95 11.71602-3.493 3.387 14.22 14.1145-1.281-11.7161z" fill="#fff"/><circle cx="90" cy="55.8047" fill="#d9d9d9" r="15.5"/></g></svg>

<svg width="180" height="180" viewBox="0 0 180 180" fill="none" xmlns="http://www.w3.org/2000/svg">
<g clip-path="url(#clip0_1831_3739)">
<circle cx="90" cy="94.3047" r="81" fill="url(#paint0_linear_1831_3739)"/>
<mask id="mask0_1831_3739" style="mask-type:luminance" maskUnits="userSpaceOnUse" x="13" y="17" width="154" height="154">
<path d="M144.228 148.041C174.094 118.21 174.094 69.8444 144.228 40.0135C114.363 10.1826 65.9415 10.1826 36.0761 40.0135C6.2107 69.8444 6.2107 118.21 36.0761 148.041C65.9415 177.872 114.363 177.872 144.228 148.041Z" fill="white"/>
</mask>
<g mask="url(#mask0_1831_3739)">
<path d="M320.694 68.4368H12.3076V119.363H320.694V68.4368Z" fill="#E41313"/>
</g>
<mask id="mask1_1831_3739" style="mask-type:luminance" maskUnits="userSpaceOnUse" x="13" y="17" width="154" height="154">
<path d="M144.228 148.041C174.094 118.21 174.094 69.8444 144.228 40.0135C114.363 10.1826 65.9415 10.1826 36.0761 40.0135C6.2107 69.8444 6.2107 118.21 36.0761 148.041C65.9415 177.872 114.363 177.872 144.228 148.041Z" fill="white"/>
</mask>
<g mask="url(#mask1_1831_3739)">
<path d="M320.694 119.359H12.3076V170.286H320.694V119.359Z" fill="#E41313"/>
</g>
<mask id="mask2_1831_3739" style="mask-type:luminance" maskUnits="userSpaceOnUse" x="13" y="17" width="154" height="154">
<path d="M144.228 148.041C174.094 118.21 174.094 69.8444 144.228 40.0135C114.363 10.1826 65.9415 10.1826 36.0761 40.0135C6.2107 69.8444 6.2107 118.21 36.0761 148.041C65.9415 177.872 114.363 177.872 144.228 148.041Z" fill="white"/>
</mask>
<g mask="url(#mask2_1831_3739)">
<path d="M168.002 17.5105H12.3076V94.0275H168.002V17.5105Z" fill="#2E2C84"/>
</g>
<mask id="mask3_1831_3739" style="mask-type:luminance" maskUnits="userSpaceOnUse" x="13" y="17" width="154" height="154">
<path d="M144.228 148.041C174.094 118.21 174.094 69.8444 144.228 40.0135C114.363 10.1826 65.9415 10.1826 36.0761 40.0135C6.2107 69.8444 6.2107 118.21 36.0761 148.041C65.9415 177.872 114.363 177.872 144.228 148.041Z" fill="white"/>
</mask>
<g mask="url(#mask3_1831_3739)">
<path d="M85.7812 40.3124L90.1562 27.8542L94.5312 40.3124H85.7812Z" fill="white"/>
</g>
<mask id="mask4_1831_3739" style="mask-type:luminance" maskUnits="userSpaceOnUse" x="13" y="17" width="154" height="154">
<path d="M144.228 148.041C174.094 118.21 174.094 69.8444 144.228 40.0135C114.363 10.1826 65.9415 10.1826 36.0761 40.0135C6.2107 69.8444 6.2107 118.21 36.0761 148.041C65.9415 177.872 114.363 177.872 144.228 148.041Z" fill="white"/>
</mask>
<g mask="url(#mask4_1831_3739)">
<path d="M94.5315 40.0723L104.868 31.843L101.939 44.7203L94.5315 40.0723Z" fill="white"/>
</g>
<mask id="mask5_1831_3739" style="mask-type:luminance" maskUnits="userSpaceOnUse" x="13" y="17" width="154" height="154">
<path d="M144.228 148.041C174.094 118.21 174.094 69.8444 144.228 40.0135C114.363 10.1826 65.9415 10.1826 36.0761 40.0135C6.2107 69.8444 6.2107 118.21 36.0761 148.041C65.9415 177.872 114.363 177.872 144.228 148.041Z" fill="white"/>
</mask>
<g mask="url(#mask5_1831_3739)">
<path d="M101.55 44.4614L114.598 42.3394L105.738 52.1383L101.55 44.4614Z" fill="white"/>
</g>
<mask id="mask6_1831_3739" style="mask-type:luminance" maskUnits="userSpaceOnUse" x="13" y="17" width="154" height="154">
<path d="M144.228 148.041C174.094 118.21 174.094 69.8444 144.228 40.0135C114.363 10.1826 65.9415 10.1826 36.0761 40.0135C6.2107 69.8444 6.2107 118.21 36.0761 148.041C65.9415 177.872 114.363 177.872 144.228 148.041Z" fill="white"/>
</mask>
<g mask="url(#mask6_1831_3739)">
<path d="M94.5214 71.2713L90.0778 83.7105L85.7715 71.2256L94.5214 71.2713Z" fill="white"/>
</g>
<mask id="mask7_1831_3739" style="mask-type:luminance" maskUnits="userSpaceOnUse" x="13" y="17" width="154" height="154">
<path d="M144.228 148.041C174.094 118.21 174.094 69.8444 144.228 40.0135C114.363 10.1826 65.9415 10.1826 36.0761 40.0135C6.2107 69.8444 6.2107 118.21 36.0761 148.041C65.9415 177.872 114.363 177.872 144.228 148.041Z" fill="white"/>
</mask>
<g mask="url(#mask7_1831_3739)">
<path d="M85.7711 71.4657L75.3887 79.6378L78.3829 66.7795L85.7711 71.4657Z" fill="white"/>
</g>
<mask id="mask8_1831_3739" style="mask-type:luminance" maskUnits="userSpaceOnUse" x="13" y="17" width="154" height="154">
<path d="M144.228 148.041C174.094 118.21 174.094 69.8444 144.228 40.0135C114.363 10.1826 65.9415 10.1826 36.0761 40.0135C6.2107 69.8444 6.2107 118.21 36.0761 148.041C65.9415 177.872 114.363 177.872 144.228 148.041Z" fill="white"/>
</mask>
<g mask="url(#mask8_1831_3739)">
<path d="M78.7719 67.0384L65.7119 69.0958L74.6258 59.3425L78.7719 67.0384Z" fill="white"/>
</g>
<mask id="mask9_1831_3739" style="mask-type:luminance" maskUnits="userSpaceOnUse" x="13" y="17" width="154" height="154">
<path d="M144.228 148.041C174.094 118.21 174.094 69.8444 144.228 40.0135C114.363 10.1826 65.9415 10.1826 36.0761 40.0135C6.2107 69.8444 6.2107 118.21 36.0761 148.041C65.9415 177.872 114.363 177.872 144.228 148.041Z" fill="white"/>
</mask>
<g mask="url(#mask9_1831_3739)">
<path d="M105.562 51.3992L118.035 55.7691L105.562 60.139V51.3992Z" fill="white"/>
</g>
<mask id="mask10_1831_3739" style="mask-type:luminance" maskUnits="userSpaceOnUse" x="13" y="17" width="154" height="154">
<path d="M144.228 148.041C174.094 118.21 174.094 69.8444 144.228 40.0135C114.363 10.1826 65.9415 10.1826 36.0761 40.0135C6.2107 69.8444 6.2107 118.21 36.0761 148.041C65.9415 177.872 114.363 177.872 144.228 148.041Z" fill="white"/>
</mask>
<g mask="url(#mask10_1831_3739)">
<path d="M94.5315 71.7667L104.868 79.9959L101.939 67.1187L94.5315 71.7667Z" fill="white"/>
</g>
<mask id="mask11_1831_3739" style="mask-type:luminance" maskUnits="userSpaceOnUse" x="13" y="17" width="154" height="154">
<path d="M144.228 148.041C174.094 118.21 174.094 69.8444 144.228 40.0135C114.363 10.1826 65.9415 10.1826 36.0761 40.0135C6.2107 69.8444 6.2107 118.21 36.0761 148.041C65.9415 177.872 114.363 177.872 144.228 148.041Z" fill="white"/>
</mask>
<g mask="url(#mask11_1831_3739)">
<path d="M101.55 67.3776L114.598 69.4997L105.738 59.7046L101.55 67.3776Z" fill="white"/>
</g>
<mask id="mask12_1831_3739" style="mask-type:luminance" maskUnits="userSpaceOnUse" x="13" y="17" width="154" height="154">
<path d="M144.228 148.041C174.094 118.21 174.094 69.8444 144.228 40.0135C114.363 10.1826 65.9415 10.1826 36.0761 40.0135C6.2107 69.8444 6.2107 118.21 36.0761 148.041C65.9415 177.872 114.363 177.872 144.228 148.041Z" fill="white"/>
</mask>
<g mask="url(#mask12_1831_3739)">
<path d="M85.7819 39.7752L75.4414 31.5459L78.3708 44.4232L85.7819 39.7752Z" fill="white"/>
</g>
<mask id="mask13_1831_3739" style="mask-type:luminance" maskUnits="userSpaceOnUse" x="13" y="17" width="154" height="154">
<path d="M144.228 148.041C174.094 118.21 174.094 69.8444 144.228 40.0135C114.363 10.1826 65.9415 10.1826 36.0761 40.0135C6.2107 69.8444 6.2107 118.21 36.0761 148.041C65.9415 177.872 114.363 177.872 144.228 148.041Z" fill="white"/>
</mask>
<g mask="url(#mask13_1831_3739)">
<path d="M78.7605 44.1643L65.7119 42.0422L74.5763 51.8373L78.7605 44.1643Z" fill="white"/>
</g>
<mask id="mask14_1831_3739" style="mask-type:luminance" maskUnits="userSpaceOnUse" x="13" y="17" width="154" height="154">
<path d="M144.228 148.041C174.094 118.21 174.094 69.8444 144.228 40.0135C114.363 10.1826 65.9415 10.1826 36.0761 40.0135C6.2107 69.8444 6.2107 118.21 36.0761 148.041C65.9415 177.872 114.363 177.872 144.228 148.041Z" fill="white"/>
</mask>
<g mask="url(#mask14_1831_3739)">
<path d="M74.7509 51.1018L62.2744 55.4717L74.7509 59.8416V51.1018Z" fill="white"/>
</g>
<mask id="mask15_1831_3739" style="mask-type:luminance" maskUnits="userSpaceOnUse" x="13" y="17" width="154" height="154">
<path d="M144.228 148.041C174.094 118.21 174.094 69.8444 144.228 40.0135C114.363 10.1826 65.9415 10.1826 36.0761 40.0135C6.2107 69.8444 6.2107 118.21 36.0761 148.041C65.9415 177.872 114.363 177.872 144.228 148.041Z" fill="white"/>
</mask>
<g mask="url(#mask15_1831_3739)">
<path d="M94.5312 60.699L90.1562 73.161L85.7812 60.699H94.5312Z" fill="white"/>
</g>
<mask id="mask16_1831_3739" style="mask-type:luminance" maskUnits="userSpaceOnUse" x="13" y="17" width="154" height="154">
<path d="M144.228 148.041C174.094 118.21 174.094 69.8444 144.228 40.0135C114.363 10.1826 65.9415 10.1826 36.0761 40.0135C6.2107 69.8444 6.2107 118.21 36.0761 148.041C65.9415 177.872 114.363 177.872 144.228 148.041Z" fill="white"/>
</mask>
<g mask="url(#mask16_1831_3739)">
<path d="M106.425 55.7689H105.589C105.589 60.0283 103.861 63.8763 101.069 66.6689C98.2736 69.4615 94.4212 71.1836 90.1569 71.1836C85.8925 71.1836 82.0401 69.4577 79.2443 66.6689C76.4484 63.8763 74.7244 60.0283 74.7244 55.7689C74.7244 51.5095 76.4522 47.6615 79.2443 44.8689C82.0401 42.0763 85.8925 40.3543 90.1569 40.3543C94.4212 40.3543 98.2736 42.0801 101.069 44.8689C103.865 47.6615 105.589 51.5095 105.589 55.7689H106.425H107.26C107.26 51.0561 105.345 46.7777 102.252 43.6879C99.1585 40.5981 94.8789 38.6855 90.1569 38.6855C85.4386 38.6855 81.1552 40.5981 78.0618 43.6879C74.9685 46.7777 73.0537 51.0523 73.0537 55.7689C73.0537 60.4817 74.9685 64.7602 78.0618 67.8499C81.1552 70.9397 85.4348 72.8523 90.1569 72.8523C94.8751 72.8523 99.1585 70.9397 102.252 67.8499C105.345 64.7602 107.26 60.4855 107.26 55.7689H106.425Z" fill="#2C2E82"/>
</g>
<path d="M155.734 45.43L149.068 38.8016L148.966 38.8161V38.7434L134.79 24.7452L138.283 21.3728L136.231 9.59863L126.493 21.6636C124.834 23.3352 124.529 26.0535 125.722 28.0594L131.806 38.1475C132.738 39.7028 134.426 40.6331 136.245 40.6186L139.258 40.5895L155.734 45.43Z" fill="#18B6F6"/>
<path d="M159.373 21.4309L158.034 18.9598L157.336 17.6951L157.059 17.2009L157.03 17.23L153.362 10.8777C152.445 9.27876 150.728 8.29031 148.865 8.30485L145.648 8.39206L136.056 8.42113C134.237 8.43567 132.578 9.39505 131.661 10.9504L125.824 22.5211L136.26 9.56948L149.942 24.5998L147.511 27.0564L148.967 38.816L148.981 38.787V38.816H148.952L148.981 38.8451L150.116 39.9499L155.633 45.3427C155.866 45.5608 156.244 45.2991 156.084 45.0229L152.678 38.3218L158.617 27.3471L158.806 27.129C158.879 27.0418 158.951 26.9546 159.01 26.8674C160.174 25.283 160.334 23.1607 159.373 21.4309Z" fill="#AC7EF4"/>
<path d="M149.984 24.5416L136.259 9.58398L138.209 21.3L134.716 24.687L148.936 38.8015L147.655 27.0854L149.984 24.5416Z" fill="white"/>
<circle cx="90" cy="55.8047" r="15.5" fill="#D9D9D9"/>
</g>
<defs>
<linearGradient id="paint0_linear_1831_3739" x1="44.5" y1="30.3047" x2="150.5" y2="149.805" gradientUnits="userSpaceOnUse">
<stop stop-color="#AC7FF4"/>
<stop offset="1" stop-color="#18B6F6"/>
</linearGradient>
<clipPath id="clip0_1831_3739">
<rect width="180" height="180" fill="white"/>
</clipPath>
</defs>
</svg>
